X: 19154
T: Irishman's Pet, The
R: jig
M: 6/8
K: Adorian
~A3 A2B|A2G E2G|~A3 Bcd|e3 efg|
a2g e2d|cdc A2B|~c3 dBA|G3 E3|
ABA A2B|A2G E2G|~A3 Bcd|e3 efg|
a2g e2d|c2A BAG|~A3 BAG|A3 efg||
a2g e2d|c2d e2f|gfe def|g3 efg|
a2g e2d|cdc A2B|~c3 dBA|G3 E3|
ABA A2B|A2G E2G|~A3 Bcd|e3 efg|
a2g e2d|c2A BAG|~A3 BAG|A3 E3||

